images/42-ph-logo.svg

<?xml version="1.0" encoding="UTF-8"?>
<svg width="183px" height="40px" viewBox="0 0 183 40" version="1.1" xmlns="http://www.w3.org/2000/svg" xmlns:xlink="http://www.w3.org/1999/xlink">
    <!-- Generator: Sketch 52.6 (67491) - http://www.bohemiancoding.com/sketch -->
    <title>42-ph-logo</title>
    <desc>Created with Sketch.</desc>
    <g id="Page-1" stroke="none" stroke-width="1" fill="none" fill-rule="evenodd">
        <g id="42-ph-logo">
            <polygon id="Path" fill="#F4F4F4" points="56.14 14.64 68.69 14.64 68.69 15.71 57.37 15.71 57.37 23.71 67.56 23.71 67.56 24.77 57.37 24.77 57.37 34.63 56.14 34.63"></polygon>
            <path d="M72.52,27.44 C72.5117647,26.4568617 72.6568398,25.4784486 72.95,24.54 C73.2243396,23.6706712 73.6584301,22.8601427 74.23,22.15 C74.7908104,21.4575676 75.4976486,20.8975606 76.3,20.51 C78.1025463,19.713239 80.1574537,19.713239 81.96,20.51 C82.7515252,20.9012569 83.4478189,21.4610224 84,22.15 C84.5684086,22.8606705 84.9991227,23.6712271 85.27,24.54 C85.8566542,26.4322394 85.8566542,28.4577606 85.27,30.35 C85.0057102,31.2245421 84.5744242,32.0395707 84,32.75 C83.4557036,33.4256646 82.773963,33.9778745 82,34.37 C80.1974537,35.166761 78.1425463,35.166761 76.34,34.37 C75.5408098,33.9863011 74.8345213,33.4335535 74.27,32.75 C73.6957875,32.039431 73.2645244,31.2244456 73,30.35 C72.6899633,29.4107852 72.5280245,28.4290312 72.52,27.44 Z M73.58,27.44 C73.5963831,28.2829072 73.7379289,29.1187013 74,29.92 C74.2114535,30.6655999 74.5497303,31.3692156 75,32 C75.4627607,32.6139662 76.0573595,33.1162997 76.74,33.47 C78.2417777,34.2040041 79.9982223,34.2040041 81.5,33.47 C82.1853751,33.1204 82.7808252,32.6173473 83.24,32 C83.7215924,31.3673244 84.0841538,30.6523668 84.31,29.89 C84.7980731,28.2590656 84.7980731,26.5209344 84.31,24.89 C84.0819127,24.1285268 83.7195472,23.4139556 83.24,22.78 C82.7836724,22.1638351 82.1917499,21.660872 81.51,21.31 C79.2560601,20.1566677 76.498301,20.8090408 75,22.85 C74.5443956,23.5031881 74.2060083,24.2307207 74,25 C73.7424945,25.7886819 73.6010149,26.6106107 73.58,27.44 Z" id="Shape" fill="#F4F4F4" fill-rule="nonzero"></path>
            <path d="M92.93,23.44 L93,23.44 C93.1358422,22.9527892 93.3783666,22.5018988 93.71,22.12 C94.0803411,21.6997411 94.5159116,21.3418305 95,21.06 C95.5140154,20.7519658 96.0697217,20.5195795 96.65,20.37 C97.2665852,20.2092699 97.9031713,20.1385381 98.54,20.16 L98.54,21.23 C97.8956594,21.1598728 97.2438459,21.2141906 96.62,21.39 C95.8582301,21.6254282 95.1696074,22.0523743 94.62,22.63 C94.3724095,22.8845068 94.1419073,23.1550963 93.93,23.44 C93.7280034,23.7064598 93.5631613,23.9991387 93.44,24.31 C93.3030119,24.6526086 93.1992032,25.0075675 93.13,25.37 C93.0510061,25.8328665 93.0042271,26.3006568 92.99,26.77 L92.99,34.64 L91.87,34.64 L91.87,20.25 L92.93,20.25 L92.93,23.44 Z" id="Path" fill="#F4F4F4"></path>
            <path d="M109.31,21.17 L106.18,21.17 L106.18,31.17 C106.160771,31.6343604 106.225126,32.0983984 106.37,32.54 C106.479901,32.8556538 106.690781,33.1262825 106.97,33.31 C107.270825,33.5011927 107.614465,33.614594 107.97,33.64 C108.412955,33.6659059 108.857045,33.6659059 109.3,33.64 L109.3,34.57 C108.774097,34.610103 108.245903,34.610103 107.72,34.57 C107.239955,34.5388472 106.774018,34.3949548 106.36,34.15 C105.952359,33.9004171 105.628526,33.5347995 105.43,33.1 C105.165324,32.4932769 105.061981,31.8284373 105.13,31.17 L105.13,21.17 L102.47,21.17 L102.47,20.25 L105.13,20.25 L105.13,15.77 L106.2,15.77 L106.2,20.25 L109.33,20.25 L109.31,21.17 Z" id="Path" fill="#F4F4F4"></path>
            <path d="M113.18,20.25 L114.44,20.25 L119.78,33.38 L124.71,20.25 L125.92,20.25 L119.76,36.18 C119.46,36.89 119.18,37.5 118.93,38.01 C118.735062,38.4456843 118.444547,38.8318977 118.08,39.14 C117.697531,39.4453031 117.236391,39.636 116.75,39.69 C116.086103,39.7654025 115.418107,39.7988023 114.75,39.79 L114.75,38.86 C115.351925,38.8772418 115.953559,38.8167422 116.54,38.68 C116.997507,38.5417986 117.411098,38.2867505 117.74,37.94 C118.025133,37.6070893 118.24558,37.2238518 118.39,36.81 C118.61,36.26 118.89,35.51 119.23,34.55 L113.18,20.25 Z" id="Path" fill="#F4F4F4"></path>
            <polygon id="Path" fill="#F4F4F4" points="129 15.71 129 14.64 144.32 14.64 144.32 15.71 137.26 15.71 137.26 34.64 136.03 34.64 136.03 15.71"></polygon>
            <polygon id="Path" fill="#F4F4F4" points="150.05 33.4 150.11 33.4 154 20.25 155.43 20.25 159.4 33.4 159.46 33.4 163.46 20.25 164.64 20.25 160.02 34.64 158.7 34.64 154.75 21.64 154.7 21.64 150.7 34.69 149.36 34.69 144.79 20.3 146 20.3"></polygon>
            <path d="M169.15,27.44 C169.141765,26.4568617 169.28684,25.4784486 169.58,24.54 C169.850877,23.6712271 170.281591,22.8606705 170.85,22.15 C171.412503,21.4552082 172.123151,20.8948894 172.93,20.51 C174.729686,19.7161827 176.780314,19.7161827 178.58,20.51 C179.383239,20.896144 180.090366,21.45638 180.65,22.15 C181.22157,22.8601427 181.65566,23.6706712 181.93,24.54 C182.505,26.433987 182.505,28.456013 181.93,30.35 C181.66246,31.2252098 181.227773,32.040248 180.65,32.75 C180.08822,33.436362 179.381257,33.9896374 178.58,34.37 C176.780314,35.1638173 174.729686,35.1638173 172.93,34.37 C172.12618,33.9891906 171.416043,33.4361032 170.85,32.75 C170.275576,32.0395707 169.84429,31.2245421 169.58,30.35 C169.286925,29.4081004 169.141864,28.4264086 169.15,27.44 Z M170.21,27.44 C170.206812,28.2799128 170.32813,29.1156602 170.57,29.92 C170.803282,30.6701638 171.165352,31.3740003 171.64,32 C172.607272,33.2904962 174.137624,34.0351928 175.75,34 C176.576604,34.0162561 177.39434,33.8272836 178.13,33.45 C178.810601,33.1020593 179.405032,32.6067007 179.87,32 C180.347746,31.3649205 180.709941,30.6506839 180.94,29.89 C181.428073,28.2590656 181.428073,26.5209344 180.94,24.89 C180.707842,24.13016 180.345824,23.4162745 179.87,22.78 C179.407239,22.1660338 178.812641,21.6637003 178.13,21.31 C175.898584,20.1445755 173.151452,20.7668072 171.64,22.78 C171.152627,23.4495693 170.790146,24.2016319 170.57,25 C170.332703,25.7916595 170.211442,26.6135422 170.21,27.44 Z" id="Shape" fill="#F4F4F4" fill-rule="nonzero"></path>
            <rect id="Rectangle" fill="#DB2F27" style="mix-blend-mode: multiply;" x="16.17" y="0" width="7.26" height="23.43"></rect>
            <rect id="Rectangle" fill="#F1AA1E" style="mix-blend-mode: multiply;" transform="translate(39.565000, 31.010000) rotate(90.000000) translate(-39.565000, -31.010000) " x="35.935" y="19.295" width="7.26" height="23.43"></rect>
            <polygon id="Path" fill="#00BDDD" style="mix-blend-mode: multiply;" points="23.43 0 23.43 23.43 0 23.43"></polygon>
            <circle id="Oval" fill="#C1D52F" style="mix-blend-mode: multiply;" cx="39.57" cy="11.71" r="11.71"></circle>
            <rect id="Rectangle" fill="#DB2F27" style="mix-blend-mode: multiply;" x="16.17" y="27.38" width="7.26" height="7.26"></rect>
        </g>
    </g>
</svg>

<svg xmlns="http://www.w3.org/2000/svg" viewBox="0 0 182.36 39.79"><defs><style>.cls-1{isolation:isolate;}.cls-2{fill:#231f20;}.cls-3{fill:#db2f27;}.cls-3,.cls-4,.cls-5,.cls-6{mix-blend-mode:multiply;}.cls-4{fill:#f1aa1e;}.cls-5{fill:#00bddd;}.cls-6{fill:#c1d52f;}</style></defs><title>Asset 1</title><g class="cls-1"><g id="Layer_2" data-name="Layer 2"><g id="Layer_1-2" data-name="Layer 1"><path class="cls-2" d="M56.14,14.64H68.69v1.07H57.37v8H67.56v1.06H57.37v9.86H56.14Z"/><path class="cls-2" d="M72.52,27.44a9.46,9.46,0,0,1,.43-2.9,7.33,7.33,0,0,1,1.28-2.39,6.05,6.05,0,0,1,2.07-1.64,7,7,0,0,1,5.66,0A6.05,6.05,0,0,1,84,22.15a7.31,7.31,0,0,1,1.27,2.39,9.81,9.81,0,0,1,0,5.81A7.07,7.07,0,0,1,84,32.75,6.12,6.12,0,0,1,82,34.37a7,7,0,0,1-5.66,0,6.12,6.12,0,0,1-2.07-1.62A7.08,7.08,0,0,1,73,30.35,9.53,9.53,0,0,1,72.52,27.44Zm1.06,0A8.51,8.51,0,0,0,74,29.92,6.75,6.75,0,0,0,75,32a5.14,5.14,0,0,0,1.74,1.47,5.42,5.42,0,0,0,4.76,0A5,5,0,0,0,83.24,32a6.56,6.56,0,0,0,1.07-2.11,8.72,8.72,0,0,0,0-5,6.67,6.67,0,0,0-1.07-2.11,5,5,0,0,0-1.73-1.47A5.16,5.16,0,0,0,75,22.85,6.86,6.86,0,0,0,74,25,8.56,8.56,0,0,0,73.58,27.44Z"/><path class="cls-2" d="M92.93,23.44H93a3.41,3.41,0,0,1,.71-1.32A5.22,5.22,0,0,1,95,21.06a6.24,6.24,0,0,1,1.65-.69,6.61,6.61,0,0,1,1.89-.21v1.07a5.06,5.06,0,0,0-1.92.16,4.66,4.66,0,0,0-2,1.24,8.06,8.06,0,0,0-.69.81,3.69,3.69,0,0,0-.49.87,5.77,5.77,0,0,0-.31,1.06,10.15,10.15,0,0,0-.14,1.4v7.87H91.87V20.25h1.06Z"/><path class="cls-2" d="M109.31,21.17h-3.13v10a3.88,3.88,0,0,0,.19,1.37,1.52,1.52,0,0,0,.6.77,2.15,2.15,0,0,0,1,.33,11.39,11.39,0,0,0,1.33,0v.93a10.39,10.39,0,0,1-1.58,0,3.06,3.06,0,0,1-1.36-.42,2.4,2.4,0,0,1-.93-1.05,3.84,3.84,0,0,1-.3-1.93v-10h-2.66v-.92h2.66V15.77h1.07v4.48h3.13Z"/><path class="cls-2" d="M113.18,20.25h1.26l5.34,13.13,4.93-13.13h1.21l-6.16,15.93c-.3.71-.58,1.32-.83,1.83a3.18,3.18,0,0,1-.85,1.13,2.59,2.59,0,0,1-1.33.55,15.87,15.87,0,0,1-2,.1v-.93a7,7,0,0,0,1.79-.18,2.75,2.75,0,0,0,1.2-.74,3.52,3.52,0,0,0,.65-1.13c.22-.55.5-1.3.84-2.26Z"/><path class="cls-2" d="M129,15.71V14.64h15.32v1.07h-7.06V34.64h-1.23V15.71Z"/><path class="cls-2" d="M150.05,33.4h.06L154,20.25h1.43L159.4,33.4h.06l4-13.15h1.18l-4.62,14.39h-1.32l-3.95-13h-.05l-4,13.05h-1.34l-4.57-14.39H146Z"/><path class="cls-2" d="M169.15,27.44a9.46,9.46,0,0,1,.43-2.9,7.31,7.31,0,0,1,1.27-2.39,6,6,0,0,1,2.08-1.64,7,7,0,0,1,5.65,0,6,6,0,0,1,2.07,1.64,7.33,7.33,0,0,1,1.28,2.39,10,10,0,0,1,0,5.81,7.08,7.08,0,0,1-1.28,2.4,6,6,0,0,1-2.07,1.62,7,7,0,0,1-5.65,0,6.06,6.06,0,0,1-2.08-1.62,7.07,7.07,0,0,1-1.27-2.4A9.53,9.53,0,0,1,169.15,27.44Zm1.06,0a8.5,8.5,0,0,0,.36,2.48A6.77,6.77,0,0,0,171.64,32a5,5,0,0,0,4.11,2,5,5,0,0,0,2.38-.55A5.14,5.14,0,0,0,179.87,32a6.77,6.77,0,0,0,1.07-2.11,8.72,8.72,0,0,0,0-5,6.88,6.88,0,0,0-1.07-2.11,5.14,5.14,0,0,0-1.74-1.47,5.14,5.14,0,0,0-6.49,1.47A6.88,6.88,0,0,0,170.57,25,8.55,8.55,0,0,0,170.21,27.44Z"/><rect class="cls-3" x="16.17" width="7.26" height="23.43"/><rect class="cls-4" x="35.94" y="19.29" width="7.26" height="23.43" transform="translate(70.57 -8.56) rotate(90)"/><polygon class="cls-5" points="23.43 0 23.43 23.43 0 23.43 23.43 0"/><circle class="cls-6" cx="39.57" cy="11.71" r="11.71"/><rect class="cls-3" x="16.17" y="27.38" width="7.26" height="7.26"/></g></g></g></svg>
